figma/calendar.svg

<svg xmlns="http://www.w3.org/2000/svg" width="24" height="24" fill="none" viewBox="0 0 24 24">
  <path fill="#000" fill-rule="evenodd" d="M21 5.5v15c0 .83-.67 1.5-1.5 1.5h-15c-.83 0-1.5-.67-1.5-1.5v-15C3 4.67 3.67 4 4.5 4H7V2h2v2h6V2h2v2h2.5c.83 0 1.5.67 1.5 1.5ZM19 8H5v12h14V8Z" clip-rule="evenodd"/>
  <path fill="#000" d="M7 15h2v2H7v-2Zm4 0h2v2h-2v-2Zm4 0h2v2h-2v-2Zm0-4h2v2h-2v-2Zm-4 0h2v2h-2v-2Zm-4 0h2v2H7v-2Z"/>
</svg>

<svg width="24" height="24" viewBox="0 0 24 24">
  <path d="M21 5.5V20.5C21 21.33 20.33 22 19.5 22H4.5C3.67 22 3 21.33 3 20.5V5.5C3 4.67 3.67 4 4.5 4H7V2H9V4H15V2H17V4H19.5C20.33 4 21 4.67 21 5.5ZM19 8H5V20H19V8Z"/>
  <path d="M7 15H9V17H7V15ZM11 15H13V17H11V15ZM15 15H17V17H15V15ZM15 11H17V13H15V11ZM11 11H13V13H11V11ZM7 11H9V13H7V11Z"/>
</svg>
